assets/images/ig.svg

<svg width="48" height="48" viewBox="0 0 48 48" fill="none" xmlns="http://www.w3.org/2000/svg">
<g id="Group 360">
<circle id="Ellipse 17" cx="24" cy="24" r="24" fill="white"/>
<path id="Vector" d="M31.5 24C31.5 25.9891 30.7098 27.8968 29.3033 29.3033C27.8968 30.7098 25.9891 31.5 24 31.5C22.0109 31.5 20.1032 30.7098 18.6967 29.3033C17.2902 27.8968 16.5 25.9891 16.5 24C16.5 23.5725 16.545 23.155 16.6225 22.75H14V32.7425C14 33.4375 14.5625 34 15.2575 34H32.745C33.0781 33.9993 33.3973 33.8666 33.6326 33.6308C33.8679 33.3951 34 33.0756 34 32.7425V22.75H31.3775C31.455 23.155 31.5 23.5725 31.5 24ZM24 29C24.6568 28.9998 25.3071 28.8703 25.9138 28.6188C26.5205 28.3673 27.0718 27.9988 27.5361 27.5343C28.0003 27.0698 28.3686 26.5183 28.6198 25.9115C28.871 25.3046 29.0002 24.6543 29 23.9975C28.9998 23.3407 28.8703 22.6904 28.6188 22.0837C28.3673 21.477 27.9988 20.9257 27.5343 20.4614C27.0698 19.9972 26.5183 19.6289 25.9115 19.3777C25.3046 19.1265 24.6543 18.9973 23.9975 18.9975C22.6711 18.9978 21.3991 19.5251 20.4614 20.4632C19.5238 21.4014 18.9972 22.6736 18.9975 24C18.9978 25.3264 19.5251 26.5984 20.4632 27.5361C21.4014 28.4737 22.6736 29.0003 24 29ZM30 18.75H32.9975C33.1966 18.75 33.3877 18.6711 33.5287 18.5305C33.6698 18.3899 33.7493 18.1991 33.75 18V15.0025C33.75 14.8029 33.6707 14.6115 33.5296 14.4704C33.3885 14.3293 33.1971 14.25 32.9975 14.25H30C29.8004 14.25 29.609 14.3293 29.4679 14.4704C29.3268 14.6115 29.2475 14.8029 29.2475 15.0025V18C29.25 18.4125 29.5875 18.75 30 18.75ZM24 0C17.6348 0 11.5303 2.52856 7.02944 7.02944C2.52856 11.5303 0 17.6348 0 24C0 30.3652 2.52856 36.4697 7.02944 40.9706C11.5303 45.4714 17.6348 48 24 48C27.1517 48 30.2726 47.3792 33.1844 46.1731C36.0962 44.967 38.742 43.1992 40.9706 40.9706C43.1992 38.742 44.967 36.0962 46.1731 33.1844C47.3792 30.2726 48 27.1517 48 24C48 20.8483 47.3792 17.7274 46.1731 14.8156C44.967 11.9038 43.1992 9.25804 40.9706 7.02944C38.742 4.80083 36.0962 3.033 33.1844 1.82689C30.2726 0.620778 27.1517 0 24 0ZM36.5 33.7225C36.5 35.25 35.25 36.5 33.7225 36.5H14.2775C12.75 36.5 11.5 35.25 11.5 33.7225V14.2775C11.5 12.75 12.75 11.5 14.2775 11.5H33.7225C35.25 11.5 36.5 12.75 36.5 14.2775V33.7225Z" fill="#FFB445"/>
</g>
</svg>

<svg width="48" height="48" fill="none" xmlns="http://www.w3.org/2000/svg"><circle cx="24" cy="24" r="24" fill="#fff"/><path d="M31.5 24a7.5 7.5 0 0 1-15 0c0-.427.045-.845.122-1.25H14v9.992c0 .696.563 1.258 1.258 1.258h17.487A1.258 1.258 0 0 0 34 32.742V22.75h-2.622c.077.405.122.823.122 1.25ZM24 29a5.002 5.002 0 1 0-.003-10.003A5.002 5.002 0 0 0 24 29Zm6-10.25h2.998a.752.752 0 0 0 .752-.75v-2.998a.753.753 0 0 0-.752-.752H30a.753.753 0 0 0-.753.752V18c.003.413.34.75.753.75ZM24 0a24 24 0 1 0 0 48 24 24 0 0 0 0-48Zm12.5 33.722a2.786 2.786 0 0 1-2.778 2.778H14.277a2.786 2.786 0 0 1-2.777-2.778V14.277a2.786 2.786 0 0 1 2.777-2.777h19.445a2.786 2.786 0 0 1 2.778 2.777v19.445Z" fill="#FFB445"/></svg>
